X: 2
M: 3/4
L: 1/8
P: G\"oteborsk masurka
K: G
|: "G"d>c B2 B2 \
| "D7"c>B A2 A2 \
| A>B cd ef \
|1,3 "G"g>B d2 d2 \
:|2,4 "G"g2 g4 :|
|: "G"d>c BG Bd \
| g>B d2 B2 \
| "D7"c>A a2 f2 \
|1 "G"(3gag f>e d2 \
:|2 "G"g2 g4 |]
|: "G"d>c BG Bd \
| g>B d2 B2 \
| "D7"c>A a2 f2 \
|1 "G"(3gba (3gfe d2 \
:|2 "G"g2 g4 |]
